X:535
T: HEIJO WOERN WIE DO
N: E1812
O: Europa, Mitteleuropa, Deutschland, Ruhr - Gegend; Mosel - Gegend
R: Kinder -, Wiegen -, Schlaf - Lied
M: 2/4
L: 1/16
K: F
 | c4A4 | c2c2A4 |
F2F2GGG2 | A4G2z2 |
F2F2GGG2 | A4G2z2 |
A2A2G2F2 | A2A2A4 |
G2G2GGA2 | F2F2F2z2

@@@ Tune index: 5219
